res/skins/LateNight/palemoon/buttons/btn__bpm_unlocked.svg

<svg width="48" height="48" version="1.1" viewBox="0 0 24 24" xmlns="http://www.w3.org/2000/svg">
  <g transform="matrix(1.499956,0,0,1.499956,4.500265,-26.998837)" fill="none" stroke="#000" stroke-width="1.06669796">
    <path transform="translate(0,20)" d="m4.9766 0c-1.4489 0.01-2.4418 0.65947-2.9336 1.4238l1.26172 0.81059c0.2485-0.38625 0.62385-0.7271 1.6816-0.73438 1.0447-0.00718 1.407 0.31941 1.6699 0.75781 0.26297 0.4384 0.34296 1.0862 0.34375 1.5742 9.639e-4 0.58906 1.684e-4 1.8689 0 2.168h-6.166c-0.41667 0-0.83398 0.41498-0.83398 0.83008v4.3398c0 0.4151 0.41732 0.83008 0.83398 0.83008h8.332c0.41667 0 0.83398-0.41498 0.83398-0.83008v-4.3398c0-0.4151-0.41732-0.83008-0.83398-0.83008h-0.66602c1.69e-4 -0.29836 9.685e-4 -1.5773 0-2.1719-9.966e-4 -0.61214-0.060246-1.5129-0.55859-2.3438-0.49835-0.83081-1.5189-1.4943-2.9648-1.4844zm-2.9766 8h6c0.277 0 0.5 0.223 0.5 0.5s-0.223 0.5-0.5 0.5h-6c-0.277 0-0.5-0.223-0.5-0.5s0.223-0.5 0.5-0.5zm0 2h6c0.277 0 0.5 0.223 0.5 0.5s-0.223 0.5-0.5 0.5h-6c-0.277 0-0.5-0.223-0.5-0.5s0.223-0.5 0.5-0.5z" color="#000001" color-rendering="auto" dominant-baseline="auto" fill="none" fill-opacity=".50196" image-rendering="auto" shape-rendering="auto" solid-color="#000001" stroke="#000" stroke-width="1.06669796" style="font-feature-settings:normal;font-variant-alternates:normal;font-variant-caps:normal;font-variant-ligatures:normal;font-variant-numeric:normal;font-variant-position:normal;isolation:auto;mix-blend-mode:normal;shape-padding:0;text-decoration-color:#000001;text-decoration-line:none;text-decoration-style:solid;text-indent:0;text-orientation:mixed;text-transform:none;white-space:normal"/>
  </g>
  <g transform="matrix(1.499956,0,0,1.499956,4.500265,-26.998837)" fill="#3f3d3d" stroke-width=".666686">
    <path transform="translate(0,20)" d="m4.9766 0c-1.4489 0.01-2.4418 0.65947-2.9336 1.4238l1.26172 0.81059c0.2485-0.38625 0.62385-0.7271 1.6816-0.73438 1.0447-0.00718 1.407 0.31941 1.6699 0.75781 0.26297 0.4384 0.34296 1.0862 0.34375 1.5742 9.639e-4 0.58906 1.684e-4 1.8689 0 2.168h-6.166c-0.41667 0-0.83398 0.41498-0.83398 0.83008v4.3398c0 0.4151 0.41732 0.83008 0.83398 0.83008h8.332c0.41667 0 0.83398-0.41498 0.83398-0.83008v-4.3398c0-0.4151-0.41732-0.83008-0.83398-0.83008h-0.66602c1.69e-4 -0.29836 9.685e-4 -1.5773 0-2.1719-9.966e-4 -0.61214-0.060246-1.5129-0.55859-2.3438-0.49835-0.83081-1.5189-1.4943-2.9648-1.4844zm-2.9766 8h6c0.277 0 0.5 0.223 0.5 0.5s-0.223 0.5-0.5 0.5h-6c-0.277 0-0.5-0.223-0.5-0.5s0.223-0.5 0.5-0.5zm0 2h6c0.277 0 0.5 0.223 0.5 0.5s-0.223 0.5-0.5 0.5h-6c-0.277 0-0.5-0.223-0.5-0.5s0.223-0.5 0.5-0.5z" color="#000001" color-rendering="auto" dominant-baseline="auto" fill="#3f3d3d" image-rendering="auto" shape-rendering="auto" solid-color="#000001" stroke-width=".666686" style="font-feature-settings:normal;font-variant-alternates:normal;font-variant-caps:normal;font-variant-ligatures:normal;font-variant-numeric:normal;font-variant-position:normal;isolation:auto;mix-blend-mode:normal;shape-padding:0;text-decoration-color:#000001;text-decoration-line:none;text-decoration-style:solid;text-indent:0;text-orientation:mixed;text-transform:none;white-space:normal"/>
  </g>
</svg>

<?xml version="1.0" encoding="UTF-8" standalone="no"?>
<svg
   width="48"
   height="48"
   version="1.1"
   viewBox="0 0 24 24"
   id="svg1"
   sodipodi:docname="btn__bpm_unlocked.svg"
   inkscape:version="1.3.2 (1:1.3.2+202311252150+091e20ef0f)"
   xmlns:inkscape="http://www.inkscape.org/namespaces/inkscape"
   xmlns:sodipodi="http://sodipodi.sourceforge.net/DTD/sodipodi-0.dtd"
   xmlns="http://www.w3.org/2000/svg"
   xmlns:svg="http://www.w3.org/2000/svg">
  <defs
     id="defs1" />
  <sodipodi:namedview
     id="namedview1"
     pagecolor="#ffffff"
     bordercolor="#666666"
     borderopacity="1.0"
     inkscape:showpageshadow="2"
     inkscape:pageopacity="0.0"
     inkscape:pagecheckerboard="0"
     inkscape:deskcolor="#d1d1d1"
     showgrid="true"
     inkscape:zoom="12.95"
     inkscape:cx="15.791506"
     inkscape:cy="21.969112"
     inkscape:window-width="1920"
     inkscape:window-height="1056"
     inkscape:window-x="0"
     inkscape:window-y="0"
     inkscape:window-maximized="1"
     inkscape:current-layer="svg1">
    <inkscape:grid
       id="grid1"
       units="px"
       originx="0"
       originy="0"
       spacingx="0.5"
       spacingy="0.5"
       empcolor="#3f3fff"
       empopacity="0.25098039"
       color="#3f3fff"
       opacity="0.1254902"
       empspacing="5"
       dotted="false"
       gridanglex="30"
       gridanglez="30"
       visible="true" />
  </sodipodi:namedview>
  <g
     transform="matrix(1.499956,0,0,1.499956,4.500265,-26.998837)"
     id="g2"
     style="fill:none;fill-opacity:1;stroke-width:1.06669796;stroke:#000000;stroke-opacity:1;stroke-dasharray:none">
    <path
       transform="translate(0,20)"
       d="M 4.9766,0 C 3.5277,0.01 2.5348,0.65947 2.043,1.4238 l 1.26172,0.81059 c 0.2485,-0.38625 0.62385,-0.7271 1.6816,-0.73438 1.0447,-0.00718 1.407,0.31941 1.6699,0.75781 0.26297,0.4384 0.34296,1.0862 0.34375,1.5742 9.639e-4,0.58906 1.684e-4,1.8689 0,2.168 h -6.166 C 0.4173,6.00002 -1e-5,6.415 -1e-5,6.8301 v 4.3398 c 0,0.4151 0.41732,0.83008 0.83398,0.83008 h 8.332 c 0.41667,0 0.83398,-0.41498 0.83398,-0.83008 V 6.8301 C 9.99995,6.415 9.58263,6.00002 9.16597,6.00002 H 8.49995 c 1.69e-4,-0.29836 9.685e-4,-1.5773 0,-2.1719 C 8.4989534,3.21598 8.439704,2.31522 7.94136,1.48432 7.44301,0.65351 6.42246,-0.00998 4.97656,-8e-5 Z M 2,8 H 8 C 8.277,8 8.5,8.223 8.5,8.5 8.5,8.777 8.277,9 8,9 H 2 C 1.723,9 1.5,8.777 1.5,8.5 1.5,8.223 1.723,8 2,8 Z m 0,2 h 6 c 0.277,0 0.5,0.223 0.5,0.5 C 8.5,10.777 8.277,11 8,11 H 2 C 1.723,11 1.5,10.777 1.5,10.5 1.5,10.223 1.723,10 2,10 Z"
       color="#000001"
       color-rendering="auto"
       dominant-baseline="auto"
       fill="#979797"
       fill-opacity="0.50196"
       image-rendering="auto"
       shape-rendering="auto"
       solid-color="#000001"
       style="font-variant-ligatures:normal;font-variant-position:normal;font-variant-caps:normal;font-variant-numeric:normal;font-variant-alternates:normal;font-feature-settings:normal;text-indent:0;text-decoration-line:none;text-decoration-style:solid;text-decoration-color:#000001;text-transform:none;text-orientation:mixed;white-space:normal;shape-padding:0;isolation:auto;mix-blend-mode:normal;fill:none;fill-opacity:1;stroke-width:1.06669796;stroke:#000000;stroke-opacity:1;stroke-dasharray:none"
       id="path1-2" />
  </g>
  <g
     transform="matrix(1.499956,0,0,1.499956,4.500265,-26.998837)"
     id="g1"
     style="stroke-width:0.666686;fill:#928476;fill-opacity:1">
    <path
       transform="translate(0,20)"
       d="M 4.9766,0 C 3.5277,0.01 2.5348,0.65947 2.043,1.4238 l 1.26172,0.81059 c 0.2485,-0.38625 0.62385,-0.7271 1.6816,-0.73438 1.0447,-0.00718 1.407,0.31941 1.6699,0.75781 0.26297,0.4384 0.34296,1.0862 0.34375,1.5742 9.639e-4,0.58906 1.684e-4,1.8689 0,2.168 h -6.166 C 0.4173,6.00002 -1e-5,6.415 -1e-5,6.8301 v 4.3398 c 0,0.4151 0.41732,0.83008 0.83398,0.83008 h 8.332 c 0.41667,0 0.83398,-0.41498 0.83398,-0.83008 V 6.8301 C 9.99995,6.415 9.58263,6.00002 9.16597,6.00002 H 8.49995 c 1.69e-4,-0.29836 9.685e-4,-1.5773 0,-2.1719 C 8.4989534,3.21598 8.439704,2.31522 7.94136,1.48432 7.44301,0.65351 6.42246,-0.00998 4.97656,-8e-5 Z M 2,8 H 8 C 8.277,8 8.5,8.223 8.5,8.5 8.5,8.777 8.277,9 8,9 H 2 C 1.723,9 1.5,8.777 1.5,8.5 1.5,8.223 1.723,8 2,8 Z m 0,2 h 6 c 0.277,0 0.5,0.223 0.5,0.5 C 8.5,10.777 8.277,11 8,11 H 2 C 1.723,11 1.5,10.777 1.5,10.5 1.5,10.223 1.723,10 2,10 Z"
       color="#000001"
       color-rendering="auto"
       dominant-baseline="auto"
       fill="#979797"
       fill-opacity="0.50196"
       image-rendering="auto"
       shape-rendering="auto"
       solid-color="#000001"
       style="font-variant-ligatures:normal;font-variant-position:normal;font-variant-caps:normal;font-variant-numeric:normal;font-variant-alternates:normal;font-feature-settings:normal;text-indent:0;text-decoration-line:none;text-decoration-style:solid;text-decoration-color:#000001;text-transform:none;text-orientation:mixed;white-space:normal;shape-padding:0;isolation:auto;mix-blend-mode:normal;stroke-width:0.666686;fill:#928476;fill-opacity:1"
       id="path1" />
  </g>
</svg>
